X: 13151
T: First Month Of Summer, The
R: reel
M: 4/4
K: Dmajor
fe|:d~B3 ~A2FB|A~B3 defe|d~B3 ~A2FA|~B3c d2fe|
d~B3 AFBF|AFBA defg|af (3gfe fded|1 BABc d2fe:|2 BABc d2fg||
|:a2fb ~a2fb|~a2fa ~b3f|a2fb ~a2fb|fedA B2A2|
a2fb ~a2fb|afdA BABc|dfef dfef|1 dBAB d2fg:|2 dBAB d2||

